svgs/google_play_console.svg

<svg xmlns="http://www.w3.org/2000/svg" viewBox="0 0 192 192"><path d="M72.231 38.396 35.68 17.346a6.375 6.375 0 0 0-8.062 1.418 6.339 6.339 0 0 0-1.489 4.083v146.307a6.34 6.34 0 0 0 1.489 4.082 6.375 6.375 0 0 0 8.062 1.418l127.024-73.153a6.362 6.362 0 0 0 2.8-3.329 6.335 6.335 0 0 0 0-4.344 6.356 6.356 0 0 0-2.8-3.328l-11.206-6.454" fill="none" stroke="#000" stroke-width="12" stroke-linecap="round" stroke-linejoin="round"/><path d="M99.742 137.761H52.539a6.375 6.375 0 0 1-5.515-3.176 6.336 6.336 0 0 1-.853-3.175V38.396h105.327v69.558M46.171 60.299h105.327" fill="none" stroke="#000" stroke-width="12" stroke-linecap="round" stroke-linejoin="round"/><path d="M69.557 101.137a6.376 6.376 0 0 0-4.502 1.86 6.342 6.342 0 0 0 0 8.982 6.377 6.377 0 0 0 9.005 0 6.347 6.347 0 0 0 1.865-4.491c0-1.684-.672-3.3-1.865-4.491a6.378 6.378 0 0 0-4.503-1.86Zm21.495-21.441a6.384 6.384 0 0 0-3.753 1.206 6.339 6.339 0 0 0 0 10.291 6.377 6.377 0 0 0 3.753 1.206 6.376 6.376 0 0 0 4.502-1.86 6.342 6.342 0 0 0 0-8.982 6.377 6.377 0 0 0-4.502-1.861Zm15.284 15.246c-1.688 0-3.309.67-4.502 1.861a6.342 6.342 0 0 0 0 8.982 6.374 6.374 0 0 0 4.502 1.86 6.374 6.374 0 0 0 4.502-1.86 6.342 6.342 0 0 0 0-8.982 6.375 6.375 0 0 0-4.502-1.861Zm22.947-22.888a6.375 6.375 0 0 0-3.743 1.213 6.347 6.347 0 0 0-2.313 7.101 6.347 6.347 0 0 0 2.313 3.175 6.375 6.375 0 0 0 7.485 0 6.347 6.347 0 0 0 2.313-7.101 6.372 6.372 0 0 0-6.055-4.388Zm-4.503 10.842-13.942 13.907m-15.284-6.264 6.28 6.264m-27.774 6.195 12.49-12.459" fill="none" stroke="#000" stroke-width="8" stroke-linecap="round" stroke-linejoin="round"/></svg>

<svg
    xmlns="http://www.w3.org/2000/svg"
    viewBox="0 0 192 192"
    id="vector">
    <path
        id="path"
        d="M 72.231 38.396 L 35.68 17.346 C 34.383 16.599 32.864 16.332 31.39 16.591 C 29.916 16.851 28.58 17.62 27.618 18.764 C 26.656 19.908 26.128 21.354 26.129 22.847 L 26.129 169.154 C 26.129 170.647 26.656 172.093 27.618 173.236 C 28.58 174.38 29.916 175.149 31.39 175.409 C 32.864 175.668 34.383 175.401 35.68 174.654 L 162.704 101.501 C 164 100.754 164.992 99.575 165.504 98.172 C 166.016 96.77 166.016 95.231 165.504 93.828 C 164.992 92.425 164 91.246 162.704 90.5 L 151.498 84.046"
        fill="none"
        stroke="#000000"
        stroke-width="12"
        stroke-linecap="round"
        stroke-linejoin="round"/>
    <path
        id="path_1"
        d="M 99.742 137.761 L 52.539 137.761 C 51.421 137.761 50.323 137.468 49.355 136.91 C 48.387 136.353 47.583 135.551 47.024 134.585 C 46.465 133.62 46.171 132.524 46.171 131.41 L 46.171 38.396 L 151.498 38.396 L 151.498 107.954 M 46.171 60.299 L 151.498 60.299"
        fill="none"
        stroke="#000000"
        stroke-width="12"
        stroke-linecap="round"
        stroke-linejoin="round"/>
    <path
        id="path_2"
        d="M 69.557 101.137 C 67.869 101.137 66.249 101.806 65.055 102.997 C 63.861 104.188 63.19 105.804 63.19 107.488 C 63.19 109.172 63.861 110.789 65.055 111.979 C 66.249 113.17 67.869 113.84 69.557 113.84 C 71.245 113.84 72.866 113.17 74.06 111.979 C 75.253 110.789 75.925 109.172 75.925 107.488 C 75.925 105.804 75.253 104.188 74.06 102.997 C 72.866 101.806 71.245 101.137 69.557 101.137 Z M 91.052 79.696 C 89.704 79.692 88.39 80.115 87.299 80.902 C 86.207 81.69 85.394 82.803 84.977 84.081 C 84.56 85.359 84.56 86.737 84.977 88.014 C 85.394 89.292 86.207 90.405 87.299 91.193 C 88.39 91.981 89.704 92.403 91.052 92.399 C 92.74 92.399 94.36 91.73 95.554 90.539 C 96.748 89.348 97.419 87.732 97.419 86.048 C 97.419 84.364 96.748 82.747 95.554 81.557 C 94.36 80.366 92.74 79.696 91.052 79.696 Z M 106.336 94.942 C 104.648 94.942 103.027 95.612 101.834 96.803 C 100.64 97.993 99.969 99.61 99.969 101.294 C 99.969 102.978 100.64 104.594 101.834 105.785 C 103.027 106.976 104.648 107.645 106.336 107.645 C 108.024 107.645 109.645 106.976 110.838 105.785 C 112.032 104.594 112.703 102.978 112.703 101.294 C 112.703 99.61 112.032 97.993 110.838 96.803 C 109.645 95.612 108.024 94.942 106.336 94.942 Z M 129.283 72.054 C 127.938 72.054 126.628 72.478 125.54 73.267 C 124.452 74.055 123.642 75.167 123.227 76.442 C 122.811 77.718 122.811 79.092 123.227 80.368 C 123.642 81.643 124.452 82.755 125.54 83.543 C 126.628 84.332 127.938 84.756 129.283 84.756 C 130.627 84.756 131.938 84.332 133.025 83.543 C 134.113 82.755 134.923 81.643 135.338 80.368 C 135.754 79.092 135.754 77.718 135.338 76.442 C 134.923 75.167 134.113 74.055 133.025 73.267 C 131.938 72.478 130.627 72.054 129.283 72.054 Z M 124.78 82.896 L 110.838 96.803 M 95.554 90.539 L 101.834 96.803 M 74.06 102.998 L 86.55 90.539"
        fill="none"
        stroke="#000000"
        stroke-width="8"
        stroke-linecap="round"
        stroke-linejoin="round"/>
</svg>
